static/images/down_arrow_grey.svg

<svg width="16" height="9" viewBox="0 0 16 9" fill="none" xmlns="http://www.w3.org/2000/svg">
<path d="M7.99555 9C8.3606 9 8.66333 8.87106 8.94825 8.58739L15.6528 1.96848C15.8843 1.75358 16 1.47851 16 1.16046C16 0.515759 15.4658 -6.76031e-07 14.798 -6.46841e-07C14.4597 -6.32052e-07 14.1658 0.128939 13.9254 0.361031L7.98664 6.24069L2.06566 0.361031C1.82526 0.12894 1.52254 -6.65522e-08 1.1931 -5.2152e-08C0.52532 -2.29625e-08 -3.70858e-07 0.515759 -3.42677e-07 1.16046C-3.28399e-07 1.48711 0.106844 1.75358 0.338341 1.96848L7.04285 8.58739C7.32777 8.87106 7.6305 8.9914 7.99555 9Z" fill="#9C9C9C"/>
</svg>

<svg xmlns="http://www.w3.org/2000/svg" width="16" height="9" fill="none"><path fill="#9C9C9C" d="M7.996 9c.365 0 .667-.129.952-.413l6.705-6.619c.231-.214.347-.49.347-.808C16 .516 15.466 0 14.798 0c-.338 0-.632.129-.873.361l-5.938 5.88L2.066.36A1.243 1.243 0 0 0 1.193 0C.525 0 0 .516 0 1.16c0 .327.107.594.338.808l6.705 6.62c.285.283.587.403.953.412Z"/></svg>
